icons/badge/alert/circle.svg

<svg width="32" height="32" viewBox="0 0 32 32" fill="none" xmlns="http://www.w3.org/2000/svg">
<path fill-rule="evenodd" clip-rule="evenodd" d="M15.9999 4.00003C9.37246 4.00003 3.99988 9.37261 3.99988 16C3.99988 22.6274 9.37246 28 15.9999 28C22.6273 28 27.9999 22.6274 27.9999 16C27.9999 9.37261 22.6273 4.00003 15.9999 4.00003ZM1.99988 16C1.99988 8.26804 8.26789 2.00003 15.9999 2.00003C23.7319 2.00003 29.9999 8.26804 29.9999 16C29.9999 23.732 23.7319 30 15.9999 30C8.26789 30 1.99988 23.732 1.99988 16ZM17.4999 20V23H14.4999V20H17.4999ZM16.9799 17L16.9797 8.99999L15.0201 9.00005L15.0203 17L16.9799 17Z" fill="black"/>
</svg>

<svg viewBox="0 0 32 32" xmlns="http://www.w3.org/2000/svg"><path fill-rule="evenodd" d="M16 4C9.372 4 4 9.373 4 16s5.372 12 12 12c6.627 0 12-5.373 12-12S22.627 4 16 4zM2 16C2 8.268 8.268 2 16 2s14 6.268 14 14-6.268 14-14 14S2 23.732 2 16zm15.5 4v3h-3v-3h3zm-.52-3V9h-1.96v8h1.96z"/></svg>
